src/components/icon/assets/warning.svg

<?xml version="1.0" encoding="UTF-8"?>
<svg width="24px" height="24px" viewBox="0 0 24 24" version="1.1" xmlns="http://www.w3.org/2000/svg" xmlns:xlink="http://www.w3.org/1999/xlink">
    <!-- Generator: Sketch 60 (88103) - https://sketch.com -->
    <title>Warning</title>
    <desc>Created with Sketch.</desc>
    <g id="Warning" stroke="none" stroke-width="1" fill="none" fill-rule="evenodd">
        <path d="M12.8181818,13.4736842 L11.1818182,13.4736842 L11.1818182,10.3157895 L12.8181818,10.3157895 M12.8181818,16.6315789 L11.1818182,16.6315789 L11.1818182,15.0526316 L12.8181818,15.0526316 M3,19 L21,19 L12,4 L3,19 Z" id="Shape" fill="#000000"></path>
    </g>
</svg>

<svg xmlns="http://www.w3.org/2000/svg" viewBox="0 0 24 24"><path d="M12.818 13.474h-1.636v-3.158h1.636m0 6.316h-1.636v-1.58h1.636M3 19h18L12 4 3 19z" fill-rule="evenodd"/></svg>
